usr/share/icons/biglinux-icons-material-dark/16/actions/transform-rotate.svg

<svg xmlns="http://www.w3.org/2000/svg" viewBox="0 0 16 16">
<defs id="defs3051">
<style id="current-color-scheme" type="text/css">
.ColorScheme-Text{color:#dedede}
</style>
</defs>
<path d="M2 2v8h5V5h2c1.108 0 2 .892 2 2v2H8v2H6v3h8V9h-2V7c0-1.662-1.338-3-3-3H7V2z" class="ColorScheme-Text" style="fill:currentColor;fill-opacity:1;stroke:none"/>
</svg>

<svg xmlns="http://www.w3.org/2000/svg" viewBox="0 0 16 16">
  <defs id="defs3051">
    <style type="text/css" id="current-color-scheme">
      .ColorScheme-Text {
        color:#dedede;
      }
      </style>
  </defs>
 <path style="fill:currentColor;fill-opacity:1;stroke:none" 
       d="M 2 2 L 2 10 L 7 10 L 7 5 L 9 5 C 10.10801 5 11 5.89199 11 7 L 11 9 L 9 9 L 8 9 L 8 11 L 6 11 L 6 14 L 14 14 L 14 9 L 12 9 L 12 7 C 12 5.33799 10.66201 4 9 4 L 7 4 L 7 2 L 2 2 z "
     class="ColorScheme-Text"
     />
</svg>
